SVG_Azure_All/Azure.svg

<?xml version="1.0" encoding="UTF-8" standalone="no"?>
<!-- Generated by Microsoft Visio, SVG Export Azure.svg Page-1 -->

<svg
   xmlns:dc="http://purl.org/dc/elements/1.1/"
   xmlns:cc="http://creativecommons.org/ns#"
   xmlns:rdf="http://www.w3.org/1999/02/22-rdf-syntax-ns#"
   xmlns:svg="http://www.w3.org/2000/svg"
   xmlns="http://www.w3.org/2000/svg"
   xmlns:sodipodi="http://sodipodi.sourceforge.net/DTD/sodipodi-0.dtd"
   xmlns:inkscape="http://www.inkscape.org/namespaces/inkscape"
   width="0.77558601in"
   height="0.7377882in"
   viewBox="0 0 55.842191 53.120546"
   xml:space="preserve"
   class="st4"
   version="1.1"
   id="svg74"
   sodipodi:docname="Azure.svg"
   style="font-size:12px;overflow:visible;color-interpolation-filters:sRGB;fill:none;fill-rule:evenodd;stroke-linecap:square;stroke-miterlimit:3"
   inkscape:version="0.92.5 (2060ec1f9f, 2020-04-08)"><metadata
   id="metadata78"><rdf:RDF><cc:Work
       rdf:about=""><dc:format>image/svg+xml</dc:format><dc:type
         rdf:resource="http://purl.org/dc/dcmitype/StillImage" /></cc:Work></rdf:RDF></metadata><sodipodi:namedview
   pagecolor="#ffffff"
   bordercolor="#666666"
   borderopacity="1"
   objecttolerance="10"
   gridtolerance="10"
   guidetolerance="10"
   inkscape:pageopacity="0"
   inkscape:pageshadow="2"
   inkscape:window-width="640"
   inkscape:window-height="480"
   id="namedview76"
   showgrid="false"
   inkscape:zoom="1.8979166"
   inkscape:cx="37.118614"
   inkscape:cy="16.75846"
   inkscape:window-x="0"
   inkscape:window-y="0"
   inkscape:window-maximized="0"
   inkscape:current-layer="svg74" />
	<style
   type="text/css"
   id="style2">
	<![CDATA[
		.st1 {fill:url(#grad0-11);stroke:none;stroke-linecap:butt;stroke-width:0.832953}
		.st2 {fill:url(#grad0-17);stroke:none;stroke-linecap:butt;stroke-width:0.832953}
		.st3 {fill:url(#grad0-23);stroke:none;stroke-linecap:butt;stroke-width:0.832953}
		.st4 {fill:none;fill-rule:evenodd;font-size:12px;overflow:visible;stroke-linecap:square;stroke-miterlimit:3}
	]]>
	</style>

	<defs
   id="Patterns_And_Gradients">
		<linearGradient
   id="grad0-11"
   x1="0.6981489"
   y1="29.229554"
   x2="39.2614"
   y2="29.229554"
   gradientTransform="scale(0.72692263,1.3756622)"
   gradientUnits="userSpaceOnUse">
			<stop
   offset="0"
   stop-color="#0c3f76"
   stop-opacity="1"
   id="stop4" />
			<stop
   offset="0.99"
   stop-color="#0667ba"
   stop-opacity="1"
   id="stop6" />
		</linearGradient>
		<linearGradient
   id="grad0-17"
   x1="0.79859633"
   y1="81.036473"
   x2="20.917658"
   y2="81.036473"
   gradientTransform="scale(1.0849071,0.92173789)"
   gradientUnits="userSpaceOnUse">
			<stop
   offset="0"
   stop-color="#000000"
   stop-opacity="1"
   id="stop9" />
			<stop
   offset="0.33"
   stop-color="#0266b0"
   stop-opacity="1"
   id="stop11" />
			<stop
   offset="0.99"
   stop-color="#0078d4"
   stop-opacity="1"
   id="stop13" />
		</linearGradient>
		<linearGradient
   id="grad0-23"
   x1="0"
   y1="33.546719"
   x2="44.446556"
   y2="33.546719"
   gradientTransform="scale(0.83670805,1.19516)"
   gradientUnits="userSpaceOnUse">
			<stop
   offset="0"
   stop-color="#3ac5ef"
   stop-opacity="1"
   id="stop16" />
			<stop
   offset="1"
   stop-color="#2994e0"
   stop-opacity="1"
   id="stop18" />
		</linearGradient>
	</defs>
	<g
   id="g72"
   transform="translate(-6.1767902,-6.0781745)">
		<title
   id="title22">Page-1</title>
		<g
   id="group8901-1"
   transform="translate(5.66929,-34.0157)">
			<title
   id="title24">Azure</title>
			<g
   id="group8902-2">
				<title
   id="title26">Page-1</title>
				<g
   id="group8903-3">
					<title
   id="title28">Azure v2.8134</title>
					<g
   id="group8904-4">
						<title
   id="title30">Page-1</title>
						<g
   id="group8905-5">
							<title
   id="title32">g841</title>
							<g
   id="group8906-6"
   transform="translate(0,-0.055497)">
								<title
   id="title34">path910</title>
								<g
   id="group8907-7">
									<title
   id="title36">Sheet.8907</title>
									<g
   id="shape8908-8">
										<title
   id="title38">path34</title>
										<path
   d="M 0.85,88.68 16.77,42.34 c 1.1,-2.88 4.15,-2.77 5.09,-0.09 l 6.68,19.6 -9.2,27.2 c -0.94,2.62 -0.83,4.11 -4.21,4.2 L 2.82,93.26 C 0.76,93.22 0,91.15 0.85,88.68 Z"
   class="st1"
   id="path40"
   inkscape:connector-curvature="0"
   style="fill:url(#grad0-11);stroke:none;stroke-width:0.83295298;stroke-linecap:butt" />
									</g>
								</g>
							</g>
							<g
   id="group8909-12"
   transform="translate(16.7042,-0.0278616)">
								<title
   id="title45">path922</title>
								<g
   id="group8910-13">
									<title
   id="title47">Sheet.8910</title>
									<g
   id="shape8911-14">
										<title
   id="title49">path42</title>
										<path
   d="M 17.33,74.7 H 3.17 C 0,74.57 0.62,76.73 1.96,77.88 l 14.63,13.67 0.95,0.86 c 0.87,0.81 1.52,0.82 1.52,0.82 1.23,0.02 1.7,0 1.7,0 1.66,0.03 2.35,-1.4 1.68,-3.47 z"
   class="st2"
   id="path51"
   inkscape:connector-curvature="0"
   style="fill:url(#grad0-17);stroke:none;stroke-width:0.83295298;stroke-linecap:butt" />
									</g>
								</g>
							</g>
							<g
   id="group8912-18"
   transform="translate(19.1609)">
								<title
   id="title56">path920-4</title>
								<g
   id="group8913-19">
									<title
   id="title58">Sheet.8913</title>
									<g
   id="shape8914-20">
										<title
   id="title60">path50</title>
										<path
   d="m 0,40.15 c 0,0 15.68,-0.06 17.23,-0.05 2.96,-0.09 3.26,0.75 4.63,4.72 l 14.83,43.9 c 0.38,1.45 0.84,2.89 0.12,3.68 -0.73,0.82 -2.49,0.8 -4.29,0.81 0,0 -12.82,0.01 -16.58,0 0,0 1.69,0.05 2.42,-0.33 1.81,-0.9 0.9,-2.06 0.44,-3.61 L 2.93,43.3 C 1.97,39.96 0,40.15 0,40.15 Z"
   class="st3"
   id="path62"
   inkscape:connector-curvature="0"
   style="fill:url(#grad0-23);stroke:none;stroke-width:0.83295298;stroke-linecap:butt" />
									</g>
								</g>
							</g>
						</g>
					</g>
				</g>
			</g>
		</g>
	</g>
</svg>

<?xml version="1.0" encoding="UTF-8" standalone="no"?>
<!DOCTYPE svg PUBLIC "-//W3C//DTD SVG 1.1//EN" "http://www.w3.org/Graphics/SVG/1.1/DTD/svg11.dtd">
<!-- Generated by Microsoft Visio, SVG Export Azure.svg Page-1 -->
<svg xmlns="http://www.w3.org/2000/svg" xmlns:xlink="http://www.w3.org/1999/xlink" xmlns:ev="http://www.w3.org/2001/xml-events"
		width="0.944882in" height="1.29528in" viewBox="0 0 68.0315 93.2598" xml:space="preserve" color-interpolation-filters="sRGB"
		class="st4">
	<style type="text/css">
	<![CDATA[
		.st1 {fill:url(#grad0-11);stroke:none;stroke-linecap:butt;stroke-width:0.832953}
		.st2 {fill:url(#grad0-17);stroke:none;stroke-linecap:butt;stroke-width:0.832953}
		.st3 {fill:url(#grad0-23);stroke:none;stroke-linecap:butt;stroke-width:0.832953}
		.st4 {fill:none;fill-rule:evenodd;font-size:12px;overflow:visible;stroke-linecap:square;stroke-miterlimit:3}
	]]>
	</style>

	<defs id="Patterns_And_Gradients">
		<linearGradient id="grad0-11" x1="0" y1="0" x2="1" y2="0" gradientTransform="rotate(129.24612929083 0.5 0.5)">
			<stop offset="0" stop-color="#0c3f76" stop-opacity="1"/>
			<stop offset="0.99" stop-color="#0667ba" stop-opacity="1"/>
		</linearGradient>
		<linearGradient id="grad0-17" x1="0" y1="0" x2="1" y2="0" gradientTransform="rotate(162.09711718654 0.5 0.5)">
			<stop offset="0" stop-color="#000000" stop-opacity="1"/>
			<stop offset="0.33" stop-color="#0266b0" stop-opacity="1"/>
			<stop offset="0.99" stop-color="#0078d4" stop-opacity="1"/>
		</linearGradient>
		<linearGradient id="grad0-23" x1="0" y1="0" x2="1" y2="0" gradientTransform="rotate(66.315652589859 0.5 0.5)">
			<stop offset="0" stop-color="#3ac5ef" stop-opacity="1"/>
			<stop offset="1" stop-color="#2994e0" stop-opacity="1"/>
		</linearGradient>
	</defs>
	<g>
		<title>Page-1</title>
		<g id="group8706-1" transform="translate(5.66929,-34.0157)">
			<title>Azure</title>
			<g id="group8707-2">
				<title>Page-1</title>
				<g id="group8708-3">
					<title>Azure v2.8134</title>
					<g id="group8709-4">
						<title>Page-1</title>
						<g id="group8710-5">
							<title>g841</title>
							<g id="group8711-6" transform="translate(0,-0.055497)">
								<title>path910</title>
								<g id="group8712-7">
									<title>Sheet.8712</title>
									<g id="shape8713-8">
										<title>path34</title>
										<path d="M0.85 88.68 L16.77 42.34 C17.87 39.46 20.92 39.57 21.86 42.25 L28.54 61.85 L19.34
													 89.05 C18.4 91.67 18.51 93.16 15.13 93.25 L2.82 93.26 C0.76 93.22 0 91.15 0.85
													 88.68 Z" class="st1"/>
									</g>
								</g>
							</g>
							<g id="group8714-12" transform="translate(16.7042,-0.0278616)">
								<title>path922</title>
								<g id="group8715-13">
									<title>Sheet.8715</title>
									<g id="shape8716-14">
										<title>path42</title>
										<path d="M17.33 74.7 L3.17 74.7 C0 74.57 0.62 76.73 1.96 77.88 L16.59 91.55 L17.54 92.41
													 C18.41 93.22 19.06 93.23 19.06 93.23 C20.29 93.25 20.76 93.23 20.76 93.23 C22.42
													 93.26 23.11 91.83 22.44 89.76 L17.33 74.7 Z" class="st2"/>
									</g>
								</g>
							</g>
							<g id="group8717-18" transform="translate(19.1609,0)">
								<title>path920-4</title>
								<g id="group8718-19">
									<title>Sheet.8718</title>
									<g id="shape8719-20">
										<title>path50</title>
										<path d="M0 40.15 C0 40.15 15.68 40.09 17.23 40.1 C20.19 40.01 20.49 40.85 21.86 44.82 L36.69
													 88.72 C37.07 90.17 37.53 91.61 36.81 92.4 C36.08 93.22 34.32 93.2 32.52 93.21
													 C32.52 93.21 19.7 93.22 15.94 93.21 C15.94 93.21 17.63 93.26 18.36 92.88 C20.17
													 91.98 19.26 90.82 18.8 89.27 L2.93 43.3 C1.97 39.96 0 40.15 0 40.15 Z"
												class="st3"/>
									</g>
								</g>
							</g>
						</g>
					</g>
				</g>
			</g>
		</g>
	</g>
</svg>
